packages/swarm-icons/src/icons/large/Star Selected.svg

<svg xmlns="http://www.w3.org/2000/svg" width="28" height="28" viewBox="0 0 28 28">
  <path fill="#212121" d="M8.58914652,23.4753014 C7.85551914,23.8609921 6.99808671,23.238031 7.13819707,22.4211249 L8.17189477,16.3942049 L3.79308107,12.1259164 C3.19956405,11.5473803 3.52707409,10.539408 4.34729444,10.420223 L10.3986661,9.54090726 L13.1049218,4.05743429 C13.4717355,3.31418857 14.5315803,3.31418857 14.898394,4.05743429 L17.6046497,9.54090726 L23.6560214,10.420223 C24.4762417,10.539408 24.8037518,11.5473803 24.2102348,12.1259164 L19.8314211,16.3942049 L20.8651188,22.4211249 C21.0052291,23.238031 20.1477967,23.8609921 19.4141693,23.4753014 L14.0016579,20.6297757 L8.58914652,23.4753014 Z"/>
</svg>

<svg xmlns="http://www.w3.org/2000/svg" width="28" height="28"><path fill="#212121" d="M8.59 23.475a1 1 0 01-1.452-1.054l1.034-6.027-4.379-4.268a1 1 0 01.554-1.706l6.052-.88 2.706-5.483a1 1 0 011.793 0l2.707 5.484 6.051.88a1 1 0 01.554 1.705l-4.379 4.268 1.034 6.027a1 1 0 01-1.45 1.054l-5.413-2.845-5.413 2.845z"/></svg>
